;FLAVOR:Marlin
;TIME:369
;Filament used: 0.0570157m
;Layer height: 0.06
;Generated with Cura_SteamEngine 3.4.0
M190 S60
M104 S200
M109 S200
M82 ;absolute extrusion mode
G28 ; home all axes
M117 Purge extruder
G92 E0 ; reset extruder G1 Z1.0 F3000 ; move z up little to prevent scratching of surface
G1 X0.1 Y20 Z0.3 F5000.0 ; move to start-line position
G1 X0.1 Y200.0 Z0.3 F1500.0 E15 ; draw 1st line
G1 X0.4 Y200.0 Z0.3 F5000.0 ; move to side a little
G1 X0.4 Y20 Z0.3 F1500.0 E30 ; draw 2nd line
G92 E0 ; reset extruder
G1 Z1.0 F3000 ; move z up little to prevent scratching of surface
M117 All systems go!
G92 E0
G1 F2400 E-5
;LAYER_COUNT:32
;LAYER:0
M107
M204 S5000
M205 X30 Y30
G0 F3600 X100.267 Y99.432 Z0.2
M204 S500
M205 X20 Y20
;TYPE:SKIRT
G1 F2400 E0
G1 F1800 X100.791 Y98.946 E0.02377
G1 X101.198 Y98.635 E0.04081
G1 X102.321 Y97.846 E0.08646
G1 X102.928 Y97.468 E0.11024
G1 X103.397 Y97.236 E0.12764
G1 X104.931 Y96.553 E0.18349
G1 X105.599 Y96.299 E0.20726
G1 X105.975 Y96.193 E0.22025
G1 X107.002 Y95.935 E0.25547
G1 X107.704 Y95.8 E0.27925
G1 X108.077 Y95.76 E0.29173
G1 X109.75 Y95.633 E0.34753
G1 X110.77 Y95.637 E0.38146
G1 X111.639 Y95.71 E0.41046
G1 X112.537 Y95.851 E0.4407
G1 X113.903 Y96.165 E0.48731
G1 X114.59 Y96.364 E0.5111
G1 X115.084 Y96.56 E0.52878
G1 X116.639 Y97.256 E0.58544
G1 X117.274 Y97.585 E0.60923
G1 X117.6 Y97.79 E0.62204
G1 X118.452 Y98.364 E0.65621
G1 X119.022 Y98.796 E0.68
G1 X119.314 Y99.061 E0.69311
G1 X120.566 Y100.266 E0.75091
G1 X121.053 Y100.79 E0.7747
G1 X121.367 Y101.201 E0.7919
G1 X122.155 Y102.324 E0.83753
G1 X122.532 Y102.931 E0.8613
G1 X122.761 Y103.392 E0.87842
G1 X123.445 Y104.925 E0.93425
G1 X123.699 Y105.594 E0.95805
G1 X123.807 Y105.975 E0.97122
G1 X124.065 Y107.003 E1.00647
G1 X124.201 Y107.705 E1.03026
G1 X124.24 Y108.077 E1.0427
G1 X124.367 Y109.75 E1.0985
G1 X124.381 Y110.465 E1.12229
G1 X124.326 Y111.101 E1.14352
G1 X124.096 Y112.783 E1.19998
G1 X123.883 Y113.762 E1.23331
G1 X123.649 Y114.539 E1.2603
G1 X123.332 Y115.375 E1.29003
G1 X122.737 Y116.664 E1.33725
G1 X122.296 Y117.463 E1.36761
G1 X121.839 Y118.168 E1.39555
G1 X121.233 Y118.961 E1.42875
G1 X120.117 Y120.205 E1.48433
G1 X119.61 Y120.71 E1.50813
G1 X119.307 Y120.963 E1.52126
G1 X118.462 Y121.627 E1.55701
G1 X117.63 Y122.182 E1.59027
G1 X116.365 Y122.889 E1.63847
G1 X115.722 Y123.202 E1.66225
G1 X115.22 Y123.389 E1.68007
G1 X113.65 Y123.899 E1.73498
G1 X112.959 Y124.082 E1.75875
G1 X112.343 Y124.177 E1.77948
G1 X110.661 Y124.354 E1.83573
G1 X109.946 Y124.389 E1.85954
G1 X109.548 Y124.374 E1.87279
G1 X108.466 Y124.299 E1.90886
G1 X107.757 Y124.209 E1.93264
G1 X107.384 Y124.13 E1.94532
G1 X105.782 Y123.737 E2.00018
G1 X105.098 Y123.528 E2.02397
G1 X104.623 Y123.331 E2.04107
G1 X103.333 Y122.735 E2.08833
G1 X102.538 Y122.297 E2.11852
G1 X101.834 Y121.841 E2.14642
G1 X101.2 Y121.372 E2.17265
G1 X100.331 Y120.643 E2.21038
G1 X99.751 Y120.091 E2.23701
G1 X99.178 Y119.473 E2.26504
G1 X98.634 Y118.801 E2.2938
G1 X97.845 Y117.678 E2.33944
G1 X97.371 Y116.888 E2.37009
G1 X96.98 Y116.115 E2.3989
G1 X96.678 Y115.418 E2.42416
G1 X96.32 Y114.436 E2.45893
G1 X96.113 Y113.751 E2.48273
G1 X96.031 Y113.36 E2.49602
G1 X95.728 Y111.649 E2.55381
G1 X95.631 Y110.634 E2.58772
G1 X95.618 Y109.808 E2.6152
G1 X95.664 Y108.931 E2.64441
G1 X95.831 Y107.563 E2.69024
G1 X95.957 Y106.859 E2.71403
G1 X96.1 Y106.354 E2.73149
G1 X96.62 Y104.76 E2.78726
G1 X97.008 Y103.827 E2.82086
G1 X97.402 Y103.058 E2.8496
G1 X97.794 Y102.395 E2.87522
G1 X98.374 Y101.536 E2.90969
G1 X98.807 Y100.966 E2.9335
G1 X99.068 Y100.677 E2.94645
G1 X100.267 Y99.432 E3.00394
M204 S5000
M205 X30 Y30
G0 F3600 X100.555 Y99.71
M204 S500
M205 X20 Y20
G1 F1800 X101.064 Y99.24 E3.02698
G1 X101.428 Y98.963 E3.0422
G1 X102.551 Y98.174 E3.08785
G1 X103.139 Y97.809 E3.11087
G1 X103.56 Y97.602 E3.12647
G1 X105.094 Y96.919 E3.18232
G1 X106.072 Y96.581 E3.21673
G1 X107.099 Y96.323 E3.25195
G1 X108.107 Y96.159 E3.28592
G1 X109.78 Y96.032 E3.34173
G1 X110.736 Y96.036 E3.37352
G1 X111.605 Y96.109 E3.40253
G1 X112.447 Y96.241 E3.43087
G1 X113.813 Y96.555 E3.47749
G1 X114.478 Y96.748 E3.50052
G1 X114.92 Y96.926 E3.51637
G1 X116.475 Y97.622 E3.57304
G1 X117.376 Y98.122 E3.60731
G1 X118.228 Y98.696 E3.64148
G1 X118.779 Y99.115 E3.6645
G1 X119.037 Y99.349 E3.67608
G1 X120.289 Y100.554 E3.73388
G1 X120.759 Y101.062 E3.7569
G1 X121.039 Y101.431 E3.77231
G1 X121.827 Y102.554 E3.81793
G1 X122.192 Y103.143 E3.84098
G1 X122.395 Y103.555 E3.85626
G1 X123.079 Y105.088 E3.91209
G1 X123.325 Y105.736 E3.93514
G1 X123.42 Y106.072 E3.94676
G1 X123.678 Y107.1 E3.98201
G1 X123.841 Y108.107 E4.01594
G1 X123.968 Y109.78 E4.07174
G1 X123.98 Y110.472 E4.09476
G1 X123.93 Y111.047 E4.11396
G1 X123.7 Y112.729 E4.17042
G1 X123.5 Y113.646 E4.20164
G1 X123.266 Y114.423 E4.22863
G1 X122.969 Y115.208 E4.25654
G1 X122.374 Y116.497 E4.30376
G1 X121.961 Y117.246 E4.33221
G1 X121.504 Y117.951 E4.36016
G1 X120.935 Y118.694 E4.39128
G1 X119.819 Y119.938 E4.44687
G1 X119.328 Y120.426 E4.46989
G1 X119.06 Y120.649 E4.48149
G1 X118.215 Y121.313 E4.51723
G1 X117.435 Y121.833 E4.54841
G1 X116.17 Y122.54 E4.59661
G1 X115.547 Y122.842 E4.61964
G1 X115.097 Y123.008 E4.63559
G1 X113.527 Y123.518 E4.69049
G1 X112.857 Y123.694 E4.71354
G1 X112.301 Y123.779 E4.73224
G1 X110.619 Y123.956 E4.7885
G1 X109.927 Y123.989 E4.81154
G1 X109.576 Y123.975 E4.82322
G1 X108.494 Y123.9 E4.85929
G1 X107.479 Y123.741 E4.89347
G1 X105.877 Y123.348 E4.94833
G1 X105.216 Y123.145 E4.97133
G1 X104.791 Y122.968 E4.98664
G1 X103.501 Y122.372 E5.0339
G1 X102.755 Y121.961 E5.06223
G1 X102.051 Y121.505 E5.09013
G1 X101.457 Y121.066 E5.1147
G1 X100.588 Y120.337 E5.15242
G1 X100.044 Y119.819 E5.17741
G1 X99.471 Y119.201 E5.20544
G1 X98.962 Y118.571 E5.23237
G1 X98.173 Y117.448 E5.27802
G1 X97.728 Y116.707 E5.30677
G1 X97.337 Y115.934 E5.33558
G1 X97.054 Y115.281 E5.35925
G1 X96.696 Y114.299 E5.39402
G1 X96.497 Y113.636 E5.41704
G1 X96.425 Y113.29 E5.4288
G1 X96.122 Y111.579 E5.48659
G1 X96.031 Y110.627 E5.5184
G1 X96.018 Y109.801 E5.54587
G1 X96.061 Y108.98 E5.57322
G1 X96.228 Y107.612 E5.61906
G1 X96.352 Y106.931 E5.64208
G1 X96.48 Y106.478 E5.65774
G1 X97 Y104.884 E5.7135
G1 X97.364 Y104.009 E5.74502
G1 X97.758 Y103.24 E5.77376
G1 X98.125 Y102.618 E5.79778
G1 X98.705 Y101.759 E5.83225
G1 X99.356 Y100.955 E5.86666
G1 X100.555 Y99.71 E5.92415
M204 S5000
M205 X30 Y30
G0 F3600 X100.843 Y99.987
M204 S500
M205 X20 Y20
G1 F1800 X101.335 Y99.534 E5.9464
G1 X101.658 Y99.29 E5.95986
G1 X102.781 Y98.501 E6.00551
G1 X103.35 Y98.15 E6.02774
G1 X103.722 Y97.967 E6.04153
G1 X105.256 Y97.284 E6.09738
G1 X106.17 Y96.969 E6.12954
G1 X107.197 Y96.711 E6.16476
G1 X108.137 Y96.558 E6.19643
G1 X109.81 Y96.431 E6.25224
G1 X110.703 Y96.435 E6.28194
G1 X111.572 Y96.508 E6.31094
G1 X112.358 Y96.63 E6.3374
G1 X113.724 Y96.944 E6.38402
G1 X114.365 Y97.133 E6.40624
G1 X114.757 Y97.291 E6.4203
G1 X116.312 Y97.987 E6.47697
G1 X117.153 Y98.454 E6.50896
G1 X118.005 Y99.028 E6.54313
G1 X118.759 Y99.637 E6.57537
G1 X120.011 Y100.842 E6.63316
G1 X120.465 Y101.334 E6.65543
G1 X120.712 Y101.66 E6.66903
G1 X121.5 Y102.783 E6.71466
G1 X121.851 Y103.353 E6.73692
G1 X122.03 Y103.718 E6.75045
G1 X122.714 Y105.251 E6.80628
G1 X123.032 Y106.17 E6.83862
G1 X123.29 Y107.198 E6.87387
G1 X123.442 Y108.137 E6.90551
G1 X123.569 Y109.81 E6.96132
G1 X123.58 Y110.479 E6.98357
G1 X123.533 Y110.993 E7.00074
G1 X123.303 Y112.675 E7.0572
G1 X123.117 Y113.531 E7.08634
G1 X122.883 Y114.308 E7.11333
G1 X122.605 Y115.04 E7.13937
G1 X122.01 Y116.329 E7.18659
G1 X121.625 Y117.028 E7.21313
G1 X121.168 Y117.733 E7.24107
G1 X120.637 Y118.427 E7.27014
G1 X119.521 Y119.671 E7.32572
G1 X118.813 Y120.334 E7.35799
G1 X117.968 Y120.998 E7.39373
G1 X117.24 Y121.483 E7.42282
G1 X115.975 Y122.19 E7.47102
G1 X115.373 Y122.481 E7.49326
G1 X114.973 Y122.628 E7.50744
G1 X113.403 Y123.138 E7.56234
G1 X112.756 Y123.306 E7.58457
G1 X112.259 Y123.381 E7.60129
G1 X110.577 Y123.558 E7.65754
G1 X109.604 Y123.576 E7.68991
G1 X108.522 Y123.501 E7.72598
G1 X107.575 Y123.353 E7.75786
G1 X105.973 Y122.96 E7.81273
G1 X105.334 Y122.762 E7.83498
G1 X104.958 Y122.605 E7.84853
G1 X103.668 Y122.009 E7.89579
G1 X102.973 Y121.625 E7.9222
G1 X102.269 Y121.169 E7.9501
G1 X101.714 Y120.759 E7.97305
G1 X100.845 Y120.03 E8.01078
G1 X100.338 Y119.547 E8.03407
G1 X99.765 Y118.929 E8.0621
G1 X99.289 Y118.341 E8.08726
G1 X98.5 Y117.218 E8.13291
G1 X98.085 Y116.527 E8.15972
G1 X97.694 Y115.754 E8.18853
G1 X97.43 Y115.144 E8.21064
G1 X97.072 Y114.162 E8.2454
G1 X96.819 Y113.221 E8.27781
G1 X96.516 Y111.51 E8.3356
G1 X96.431 Y110.621 E8.36531
G1 X96.418 Y109.795 E8.39278
G1 X96.458 Y109.028 E8.41833
G1 X96.625 Y107.66 E8.46417
G1 X96.746 Y107.002 E8.48642
G1 X96.86 Y106.602 E8.50025
G1 X97.38 Y105.008 E8.55602
G1 X97.72 Y104.191 E8.58545
G1 X98.114 Y103.422 E8.61419
G1 X98.457 Y102.842 E8.6366
G1 X99.037 Y101.983 E8.67107
G1 X99.644 Y101.232 E8.70319
G1 X100.843 Y99.987 E8.76068
M204 S5000
M205 X30 Y30
G0 F3600 X101.132 Y100.265
M204 S500
M205 X20 Y20
G1 F1800 X101.607 Y99.829 E8.78213
G1 X101.888 Y99.617 E8.79383
G1 X103.011 Y98.828 E8.83948
G1 X103.56 Y98.491 E8.86091
G1 X103.885 Y98.333 E8.87293
G1 X105.419 Y97.65 E8.92878
G1 X106.267 Y97.357 E8.95862
G1 X107.294 Y97.099 E8.99384
G1 X108.167 Y96.957 E9.02325
G1 X109.84 Y96.83 E9.07906
G1 X110.669 Y96.833 E9.10663
G1 X111.538 Y96.906 E9.13564
G1 X112.268 Y97.02 E9.16021
G1 X113.634 Y97.334 E9.20683
G1 X114.252 Y97.517 E9.22827
G1 X114.593 Y97.656 E9.24051
G1 X116.148 Y98.352 E9.29718
G1 X116.929 Y98.785 E9.32688
G1 X117.781 Y99.359 E9.36105
G1 X118.482 Y99.925 E9.39101
G1 X119.734 Y101.13 E9.44881
G1 X120.17 Y101.605 E9.47025
G1 X120.385 Y101.89 E9.48213
G1 X121.173 Y103.013 E9.52776
G1 X121.509 Y103.563 E9.54919
G1 X121.665 Y103.881 E9.56097
G1 X122.349 Y105.414 E9.61681
G1 X122.644 Y106.267 E9.64683
G1 X122.902 Y107.295 E9.68208
G1 X123.043 Y108.167 E9.71146
G1 X123.17 Y109.84 E9.76726
G1 X123.179 Y110.485 E9.78872
G1 X123.137 Y110.939 E9.80388
G1 X122.907 Y112.621 E9.86035
G1 X122.734 Y113.415 E9.88737
G1 X122.5 Y114.192 E9.91436
G1 X122.242 Y114.872 E9.93855
G1 X121.647 Y116.161 E9.98577
G1 X121.289 Y116.81 E10.01043
G1 X120.832 Y117.515 E10.03837
G1 X120.34 Y118.159 E10.06532
G1 X119.224 Y119.403 E10.12091
G1 X118.566 Y120.02 E10.15091
G1 X117.721 Y120.684 E10.18666
G1 X117.045 Y121.134 E10.21366
G1 X115.78 Y121.841 E10.26186
G1 X115.199 Y122.12 E10.2833
G1 X114.85 Y122.248 E10.29566
G1 X113.28 Y122.758 E10.35057
G1 X112.655 Y122.918 E10.37203
G1 X112.217 Y122.983 E10.38675
G1 X110.535 Y123.16 E10.44301
G1 X109.631 Y123.177 E10.47308
G1 X108.549 Y123.102 E10.50915
G1 X107.67 Y122.964 E10.53875
G1 X106.068 Y122.571 E10.59361
G1 X105.453 Y122.379 E10.61504
G1 X105.126 Y122.242 E10.62683
G1 X103.836 Y121.646 E10.67409
G1 X103.19 Y121.289 E10.69864
G1 X102.486 Y120.833 E10.72654
G1 X101.971 Y120.453 E10.74783
G1 X101.102 Y119.724 E10.78555
G1 X100.631 Y119.276 E10.80717
G1 X100.058 Y118.658 E10.83521
G1 X99.616 Y118.111 E10.8586
G1 X98.827 Y116.988 E10.90424
G1 X98.442 Y116.346 E10.92914
G1 X98.051 Y115.573 E10.95795
G1 X97.806 Y115.007 E10.97847
G1 X97.448 Y114.025 E11.01323
G1 X97.213 Y113.151 E11.04333
G1 X96.91 Y111.44 E11.10113
G1 X96.831 Y110.615 E11.12869
G1 X96.818 Y109.789 E11.15617
G1 X96.855 Y109.077 E11.17988
G1 X97.022 Y107.709 E11.22572
G1 X97.14 Y107.075 E11.24717
G1 X97.24 Y106.726 E11.25924
G1 X97.76 Y105.132 E11.31501
G1 X98.076 Y104.374 E11.34232
G1 X98.47 Y103.605 E11.37106
G1 X98.788 Y103.066 E11.39188
G1 X99.368 Y102.207 E11.42635
G1 X99.933 Y101.51 E11.45619
G1 X101.132 Y100.265 E11.51368
M204 S5000
M205 X30 Y30
G1 F2400 E6.51368
G0 F3600 X103.751 Y104.011
G0 X104.653 Y104.912
G0 X104.58 Y104.98
G0 X104.675 Y104.949
M204 S500
M205 X20 Y20
;TYPE:WALL-INNER
G1 F2400 E11.51368
G1 F1800 X104.7 Y105.022 E11.51625
G1 X104.63 Y105.004 E11.51666
G1 X104.563 Y104.987 E11.51733
G1 X104.614 Y104.936 E11.51787
G1 X104.657 Y104.893 E11.51837
G1 X104.675 Y104.949 E11.51874
M204 S5000
M205 X30 Y30
G0 F3600 X104.58 Y104.98
G0 X104.902 Y104.459
G0 X105.451 Y104.005
G0 X105.998 Y103.794
G0 X106.098 Y103.789
M204 S500
M205 X20 Y20
G1 F1800 X106.103 Y103.86 E11.5211
G1 X106.04 Y103.826 E11.52157
G1 X105.987 Y103.796 E11.52208
G1 X106.039 Y103.763 E11.5225
G1 X106.095 Y103.726 E11.5232
G1 X106.098 Y103.789 E11.52356
M204 S5000
M205 X30 Y30
G0 F3600 X105.998 Y103.794
G0 X106.441 Y103.365
G0 X107.084 Y103.062
G0 X107.745 Y103.062
G0 X107.714 Y102.967
M204 S500
M205 X20 Y20
G1 F1800 X107.779 Y102.945 E11.52585
G1 X107.767 Y103.01 E11.52628
G1 X107.752 Y103.083 E11.52717
G1 X107.699 Y103.033 E11.52763
G1 X107.65 Y102.987 E11.5283
G1 X107.714 Y102.967 E11.52878
M204 S5000
M205 X30 Y30
G0 F3600 X107.745 Y103.062
G0 X108.202 Y102.688
G0 X108.901 Y102.555
G0 X109.541 Y102.725
G0 X109.537 Y102.625
M204 S500
M205 X20 Y20
G1 F1800 X109.6 Y102.622 E11.53088
G1 X109.574 Y102.677 E11.53125
G1 X109.543 Y102.742 E11.53214
G1 X109.505 Y102.682 E11.53261
G1 X109.471 Y102.628 E11.53319
G1 X109.537 Y102.625 E11.53367
M204 S5000
M205 X30 Y30
G0 F3600 X109.541 Y102.725
G0 X110.077 Y102.471
G0 X110.788 Y102.516
G0 X111.331 Y102.736
G0 X111.408 Y102.8
M204 S500
M205 X20 Y20
G1 F1800 X111.363 Y102.855 E11.53604
G1 X111.341 Y102.786 E11.53652
G1 X111.322 Y102.729 E11.53705
G1 X111.381 Y102.738 E11.53745
G1 X111.451 Y102.749 E11.53822
G1 X111.408 Y102.8 E11.5386
M204 S5000
M205 X30 Y30
G0 F3600 X111.331 Y102.736
G0 X111.948 Y102.727
G0 X112.624 Y102.947
G0 X113.193 Y103.343
G0 X113.093 Y103.349
M204 S500
M205 X20 Y20
G1 F1800 X113.088 Y103.28 E11.5409
G1 X113.152 Y103.313 E11.54143
G1 X113.206 Y103.341 E11.54199
G1 X113.158 Y103.376 E11.54239
G1 X113.097 Y103.42 E11.54329
G1 X113.093 Y103.349 E11.54371
M204 S5000
M205 X30 Y30
G0 F3600 X113.193 Y103.343
G0 X113.695 Y103.44
G0 X114.296 Y103.821
G0 X114.666 Y104.277
G0 X114.702 Y104.37
M204 S500
M205 X20 Y20
G1 F1800 X114.635 Y104.397 E11.54611
G1 X114.648 Y104.327 E11.54657
G1 X114.66 Y104.266 E11.54712
G1 X114.709 Y104.305 E11.54757
G1 X114.76 Y104.347 E11.54824
G1 X114.702 Y104.37 E11.54863
M204 S5000
M205 X30 Y30
G0 F3600 X114.666 Y104.277
G0 X115.21 Y104.564
G0 X115.697 Y105.083
G0 X115.901 Y105.71
G0 X115.982 Y105.652
M204 S500
M205 X20 Y20
G1 F1800 X116.023 Y105.708 E11.55093
G1 X115.958 Y105.716 E11.55133
G1 X115.884 Y105.725 E11.55222
G1 X115.915 Y105.658 E11.5527
G1 X115.943 Y105.599 E11.55332
G1 X115.982 Y105.652 E11.55378
M204 S5000
M205 X30 Y30
G0 F3600 X115.901 Y105.71
G0 X116.399 Y106.032
G0 X116.741 Y106.654
G0 X116.777 Y107.314
G0 X116.871 Y107.28
M204 S500
M205 X20 Y20
G1 F1800 X116.893 Y107.339 E11.55588
G1 X116.834 Y107.332 E11.55625
G1 X116.763 Y107.322 E11.55712
G1 X116.808 Y107.268 E11.55757
G1 X116.848 Y107.22 E11.55813
G1 X116.871 Y107.28 E11.55859
M204 S5000
M205 X30 Y30
G0 F3600 X116.777 Y107.314
G0 X117.185 Y107.748
G0 X117.362 Y108.437
G0 X117.234 Y109.082
G0 X117.333 Y109.068
M204 S500
M205 X20 Y20
G1 F1800 X117.345 Y109.14 E11.56102
G1 X117.282 Y109.115 E11.5614
G1 X117.213 Y109.088 E11.56225
G1 X117.275 Y109.043 E11.56278
G1 X117.324 Y109.008 E11.56328
G1 X117.333 Y109.068 E11.5637
M204 S5000
M205 X30 Y30
G0 F3600 X117.234 Y109.082
G0 X117.519 Y109.604
G0 X117.519 Y110.316
G0 X117.318 Y110.978
G0 X117.282 Y110.885
M204 S500
M205 X20 Y20
G1 F1800 X117.345 Y110.86 E11.56596
G1 X117.334 Y110.93 E11.56647
G1 X117.324 Y110.99 E11.56703
G1 X117.276 Y110.955 E11.56744
G1 X117.216 Y110.911 E11.56832
G1 X117.282 Y110.885 E11.56873
M204 S5000
M205 X30 Y30
G0 F3600 X117.318 Y110.978
G0 X117.381 Y111.487
G0 X117.205 Y112.175
G0 X116.843 Y112.769
G0 X116.832 Y112.669
M204 S500
M205 X20 Y20
G1 F1800 X116.893 Y112.661 E11.57077
G1 X116.871 Y112.72 E11.57122
G1 X116.847 Y112.78 E11.57195
G1 X116.808 Y112.733 E11.57233
G1 X116.763 Y112.678 E11.57319
G1 X116.832 Y112.669 E11.57363
M204 S5000
M205 X30 Y30
G0 F3600 X116.843 Y112.769
G0 X116.78 Y113.276
G0 X116.438 Y113.898
G0 X115.904 Y114.287
G0 X115.983 Y114.346
M204 S500
M205 X20 Y20
G1 F1800 X115.943 Y114.401 E11.57589
G1 X115.916 Y114.343 E11.57627
G1 X115.884 Y114.275 E11.57719
