;FLAVOR:Marlin
;TIME:738
;Filament used: 1.10073m
;Layer height: 0.3
;Generated with Cura_SteamEngine 3.4.0
M190 S60
M104 S200
M109 S200
M82 ;absolute extrusion mode
G28 ; home all axes
M117 Purge extruder
G92 E0 ; reset extruder G1 Z1.0 F3000 ; move z up little to prevent scratching of surface
G1 X0.1 Y20 Z0.3 F5000.0 ; move to start-line position
G1 X0.1 Y200.0 Z0.3 F1500.0 E15 ; draw 1st line
G1 X0.4 Y200.0 Z0.3 F5000.0 ; move to side a little
G1 X0.4 Y20 Z0.3 F1500.0 E30 ; draw 2nd line
G92 E0 ; reset extruder
G1 Z1.0 F3000 ; move z up little to prevent scratching of surface
M117 All systems go!
G92 E0
G1 F2400 E-5
;LAYER_COUNT:18
;LAYER:0
M107
M204 S5000
M205 X30 Y30
G0 F3600 X84.7 Y86.716 Z0.2
M204 S500
M205 X20 Y20
;TYPE:SKIRT
G1 F2400 E0
G1 F1800 X86.777 Y84.645 E0.09755
G1 X87.276 Y84.197 E0.11986
G1 X89.544 Y82.366 E0.21681
G1 X90.16 Y81.926 E0.24199
G1 X93.142 Y80.053 E0.35911
G1 X93.709 Y79.736 E0.38071
G1 X96.022 Y78.592 E0.46654
G1 X96.615 Y78.335 E0.48804
G1 X99.331 Y77.318 E0.5845
G1 X99.944 Y77.123 E0.60589
G1 X102.6 Y76.423 E0.69725
G1 X103.324 Y76.277 E0.72181
G1 X106.734 Y75.789 E0.83638
G1 X107.411 Y75.728 E0.85899
G1 X110.217 Y75.627 E0.95238
G1 X110.887 Y75.638 E0.97467
G1 X113.831 Y75.841 E1.07282
G1 X114.507 Y75.924 E1.09547
G1 X117.433 Y76.442 E1.1943
G1 X118.004 Y76.57 E1.21377
G1 X120.357 Y77.213 E1.2949
G1 X120.969 Y77.414 E1.31632
G1 X123.692 Y78.462 E1.41337
G1 X124.372 Y78.771 E1.43821
G1 X127.424 Y80.376 E1.5529
G1 X128.02 Y80.732 E1.57599
G1 X130.381 Y82.322 E1.67066
G1 X130.919 Y82.727 E1.69306
G1 X133.203 Y84.643 E1.79222
G1 X133.619 Y85.024 E1.81098
G1 X134.889 Y86.296 E1.87076
G1 X135.007 Y86.417 E1.87638
G1 X135.581 Y87.023 E1.90415
G1 X135.926 Y87.419 E1.92161
G1 X137.659 Y89.579 E2.01372
G1 X138.033 Y90.096 E2.03494
G1 X139.595 Y92.499 E2.13027
G1 X139.917 Y93.054 E2.15161
G1 X140.944 Y95.046 E2.22615
G1 X141.17 Y95.532 E2.24398
G1 X142.295 Y98.251 E2.34185
G1 X142.543 Y98.967 E2.36705
G1 X143.584 Y102.673 E2.49508
G1 X143.747 Y103.426 E2.52071
G1 X144.165 Y106.128 E2.61165
G1 X144.231 Y106.776 E2.63331
G1 X144.381 Y109.682 E2.73009
G1 X144.381 Y110.351 E2.75234
G1 X144.226 Y113.269 E2.84953
G1 X144.143 Y114.01 E2.87433
G1 X143.564 Y117.392 E2.98846
G1 X143.43 Y117.999 E3.00913
G1 X142.785 Y120.359 E3.0905
G1 X142.584 Y120.97 E3.1119
G1 X141.533 Y123.702 E3.20926
G1 X141.276 Y124.283 E3.23039
G1 X140.301 Y126.219 E3.30248
G1 X140.042 Y126.684 E3.32019
G1 X138.495 Y129.208 E3.41865
G1 X138.254 Y129.573 E3.4332
G1 X137.57 Y130.535 E3.47245
G1 X137.313 Y130.872 E3.48655
G1 X135.77 Y132.763 E3.56773
G1 X135.359 Y133.22 E3.58817
G1 X133.76 Y134.835 E3.66376
G1 X133.293 Y135.262 E3.68481
G1 X130.326 Y137.718 E3.81291
G1 X129.712 Y138.168 E3.83823
G1 X127.448 Y139.627 E3.92781
G1 X126.823 Y139.981 E3.9517
G1 X123.803 Y141.478 E4.06381
G1 X123.199 Y141.74 E4.08571
G1 X120.691 Y142.676 E4.17475
G1 X120.061 Y142.875 E4.19672
G1 X117.222 Y143.612 E4.29428
G1 X116.589 Y143.742 E4.31577
G1 X113.839 Y144.166 E4.40832
G1 X113.196 Y144.232 E4.42981
G1 X110.326 Y144.381 E4.5254
G1 X109.66 Y144.381 E4.54755
G1 X106.748 Y144.229 E4.64454
G1 X106.002 Y144.146 E4.6695
G1 X102.603 Y143.564 E4.7842
G1 X101.996 Y143.43 E4.80487
G1 X99.643 Y142.787 E4.886
G1 X99.034 Y142.587 E4.90732
G1 X96.315 Y141.542 E5.00421
G1 X95.632 Y141.232 E5.02915
G1 X92.577 Y139.625 E5.14396
G1 X91.982 Y139.27 E5.16701
G1 X89.623 Y137.682 E5.26159
G1 X89.13 Y137.314 E5.28205
G1 X87.072 Y135.62 E5.37071
G1 X86.597 Y135.188 E5.39206
G1 X84.637 Y133.214 E5.48458
G1 X84.201 Y132.727 E5.50632
G1 X82.367 Y130.457 E5.60339
G1 X81.925 Y129.839 E5.62866
G1 X80.053 Y126.858 E5.74574
G1 X79.736 Y126.291 E5.76734
G1 X78.592 Y123.978 E5.85317
G1 X78.335 Y123.385 E5.87466
G1 X77.318 Y120.669 E5.97112
G1 X77.124 Y120.057 E5.99248
G1 X76.425 Y117.406 E6.08366
G1 X76.278 Y116.687 E6.10807
G1 X75.79 Y113.301 E6.22185
G1 X75.731 Y112.66 E6.24326
G1 X75.62 Y110.047 E6.33025
G1 X75.626 Y109.39 E6.3521
G1 X75.802 Y106.469 E6.44943
G1 X75.877 Y105.805 E6.47166
G1 X76.354 Y102.935 E6.56842
G1 X76.489 Y102.312 E6.58963
G1 X77.201 Y99.682 E6.68025
G1 X77.432 Y98.989 E6.70455
G1 X78.698 Y95.806 E6.81848
G1 X78.968 Y95.216 E6.84006
G1 X80.182 Y92.884 E6.9275
G1 X80.522 Y92.307 E6.94978
G1 X82.176 Y89.808 E7.04945
G1 X82.553 Y89.295 E7.07063
G1 X84.259 Y87.203 E7.16041
G1 X84.7 Y86.716 E7.18226
M204 S5000
M205 X30 Y30
G0 F3600 X84.983 Y86.999
M204 S500
M205 X20 Y20
G1 F1800 X87.06 Y84.928 E7.27982
G1 X87.527 Y84.509 E7.30068
G1 X89.795 Y82.678 E7.39763
G1 X90.373 Y82.265 E7.42126
G1 X93.355 Y80.392 E7.53838
G1 X93.886 Y80.095 E7.55862
G1 X96.199 Y78.951 E7.64444
G1 X96.755 Y78.71 E7.6646
G1 X99.471 Y77.693 E7.76106
G1 X100.046 Y77.51 E7.78113
G1 X102.702 Y76.81 E7.87248
G1 X103.381 Y76.673 E7.89552
G1 X106.791 Y76.185 E8.0101
G1 X107.425 Y76.128 E8.03127
G1 X110.231 Y76.027 E8.12466
G1 X110.86 Y76.037 E8.14558
G1 X113.804 Y76.24 E8.24373
G1 X114.437 Y76.318 E8.26494
G1 X117.363 Y76.836 E8.36378
G1 X117.899 Y76.956 E8.38204
G1 X120.252 Y77.599 E8.46317
G1 X120.825 Y77.787 E8.48323
G1 X123.548 Y78.835 E8.58028
G1 X124.186 Y79.125 E8.60359
G1 X127.238 Y80.73 E8.71828
G1 X127.797 Y81.063 E8.73992
G1 X130.158 Y82.653 E8.83459
G1 X130.662 Y83.033 E8.85559
G1 X132.946 Y84.949 E8.95474
G1 X133.336 Y85.307 E8.97235
G1 X134.606 Y86.579 E9.03213
G1 X134.716 Y86.692 E9.03738
G1 X135.29 Y87.298 E9.06514
G1 X135.614 Y87.669 E9.08152
G1 X137.347 Y89.829 E9.17363
G1 X137.698 Y90.314 E9.19354
G1 X139.26 Y92.717 E9.28887
G1 X139.562 Y93.238 E9.3089
G1 X140.589 Y95.23 E9.38344
G1 X140.8 Y95.685 E9.40012
G1 X141.925 Y98.404 E9.49799
G1 X142.157 Y99.075 E9.5216
G1 X143.198 Y102.781 E9.64963
G1 X143.351 Y103.487 E9.67366
G1 X143.769 Y106.189 E9.7646
G1 X143.832 Y106.797 E9.78493
G1 X143.982 Y109.703 E9.88171
G1 X143.982 Y110.33 E9.90257
G1 X143.827 Y113.248 E9.99976
G1 X143.749 Y113.942 E10.02298
G1 X143.17 Y117.324 E10.13711
G1 X143.044 Y117.894 E10.15652
G1 X142.399 Y120.254 E10.2379
G1 X142.211 Y120.826 E10.25792
G1 X141.16 Y123.558 E10.35528
G1 X140.919 Y124.103 E10.3751
G1 X139.944 Y126.039 E10.4472
G1 X139.701 Y126.475 E10.4638
G1 X138.154 Y128.999 E10.56226
G1 X137.928 Y129.341 E10.57589
G1 X137.244 Y130.303 E10.61515
G1 X137.003 Y130.619 E10.62837
G1 X135.46 Y132.51 E10.70955
G1 X135.075 Y132.938 E10.7287
G1 X133.476 Y134.553 E10.80428
G1 X133.038 Y134.954 E10.82404
G1 X130.071 Y137.41 E10.95214
G1 X129.495 Y137.831 E10.97587
G1 X127.231 Y139.29 E11.06545
G1 X126.646 Y139.623 E11.08784
G1 X123.626 Y141.12 E11.19995
G1 X123.059 Y141.365 E11.2205
G1 X120.551 Y142.301 E11.30953
G1 X119.961 Y142.488 E11.33012
G1 X117.122 Y143.225 E11.42767
G1 X116.528 Y143.347 E11.44784
G1 X113.778 Y143.771 E11.54039
G1 X113.175 Y143.833 E11.56055
G1 X110.305 Y143.982 E11.65613
G1 X109.681 Y143.982 E11.67689
G1 X106.769 Y143.83 E11.77387
G1 X106.069 Y143.752 E11.7973
G1 X102.67 Y143.17 E11.912
G1 X102.101 Y143.044 E11.93138
G1 X99.748 Y142.401 E12.01251
G1 X99.178 Y142.214 E12.03246
G1 X96.459 Y141.169 E12.12935
G1 X95.818 Y140.878 E12.15276
G1 X92.763 Y139.271 E12.26757
G1 X92.205 Y138.938 E12.28918
G1 X89.846 Y137.35 E12.38376
G1 X89.384 Y137.005 E12.40294
G1 X87.326 Y135.311 E12.4916
G1 X86.881 Y134.907 E12.51159
G1 X84.921 Y132.933 E12.60411
G1 X84.512 Y132.476 E12.62451
G1 X82.678 Y130.206 E12.72157
G1 X82.264 Y129.626 E12.74527
G1 X80.392 Y126.645 E12.86235
G1 X80.095 Y126.114 E12.88259
G1 X78.951 Y123.801 E12.96841
G1 X78.71 Y123.245 E12.98857
G1 X77.693 Y120.529 E13.08503
G1 X77.51 Y119.955 E13.10507
G1 X76.811 Y117.304 E13.19625
G1 X76.674 Y116.63 E13.21913
G1 X76.186 Y113.244 E13.33291
G1 X76.13 Y112.643 E13.35299
G1 X76.019 Y110.03 E13.43997
G1 X76.025 Y109.414 E13.46046
G1 X76.201 Y106.493 E13.55779
G1 X76.271 Y105.87 E13.57864
G1 X76.748 Y103 E13.67541
G1 X76.875 Y102.416 E13.69529
G1 X77.587 Y99.786 E13.78591
G1 X77.804 Y99.137 E13.80867
G1 X79.07 Y95.954 E13.9226
G1 X79.323 Y95.4 E13.94286
G1 X80.537 Y93.068 E14.0303
G1 X80.856 Y92.527 E14.05119
G1 X82.51 Y90.028 E14.15087
G1 X82.863 Y89.548 E14.17068
G1 X84.569 Y87.456 E14.26047
G1 X84.983 Y86.999 E14.28098
M204 S5000
M205 X30 Y30
G0 F3600 X85.265 Y87.282
M204 S500
M205 X20 Y20
G1 F1800 X87.342 Y85.211 E14.37853
G1 X87.778 Y84.82 E14.39801
G1 X90.046 Y82.989 E14.49496
G1 X90.585 Y82.604 E14.51699
G1 X93.567 Y80.731 E14.63411
G1 X94.063 Y80.453 E14.65302
G1 X96.376 Y79.309 E14.73885
G1 X96.895 Y79.085 E14.75765
G1 X99.611 Y78.068 E14.85411
G1 X100.148 Y77.897 E14.87285
G1 X102.804 Y77.197 E14.96421
G1 X103.438 Y77.068 E14.98573
G1 X106.848 Y76.58 E15.1003
G1 X107.44 Y76.528 E15.12007
G1 X110.246 Y76.427 E15.21346
G1 X110.832 Y76.436 E15.23295
G1 X113.776 Y76.639 E15.3311
G1 X114.367 Y76.712 E15.35091
G1 X117.293 Y77.23 E15.44974
G1 X117.793 Y77.342 E15.46678
G1 X120.146 Y77.985 E15.54791
G1 X120.681 Y78.161 E15.56664
G1 X123.404 Y79.209 E15.66369
G1 X124 Y79.479 E15.68545
G1 X127.052 Y81.084 E15.80014
G1 X127.573 Y81.395 E15.82032
G1 X129.934 Y82.985 E15.91499
G1 X130.405 Y83.34 E15.93461
G1 X132.689 Y85.256 E16.03377
G1 X133.053 Y85.589 E16.05018
G1 X134.323 Y86.861 E16.10996
G1 X134.426 Y86.967 E16.11488
G1 X135 Y87.573 E16.14264
G1 X135.302 Y87.92 E16.15794
G1 X137.035 Y90.08 E16.25004
G1 X137.362 Y90.532 E16.2686
G1 X138.924 Y92.935 E16.36392
G1 X139.206 Y93.421 E16.38261
G1 X140.233 Y95.413 E16.45715
G1 X140.431 Y95.838 E16.47275
G1 X141.556 Y98.557 E16.57062
G1 X141.772 Y99.184 E16.59268
G1 X142.813 Y102.89 E16.72071
G1 X142.956 Y103.548 E16.7431
G1 X143.374 Y106.25 E16.83404
G1 X143.433 Y106.817 E16.853
G1 X143.583 Y109.723 E16.94978
G1 X143.582 Y110.309 E16.96928
G1 X143.427 Y113.227 E17.06646
G1 X143.355 Y113.875 E17.08815
G1 X142.776 Y117.257 E17.20227
G1 X142.658 Y117.788 E17.22036
G1 X142.013 Y120.148 E17.30174
G1 X141.838 Y120.683 E17.32046
G1 X140.787 Y123.415 E17.41782
G1 X140.562 Y123.923 E17.4363
G1 X139.587 Y125.859 E17.50839
G1 X139.36 Y126.266 E17.52389
G1 X137.813 Y128.79 E17.62236
G1 X137.602 Y129.109 E17.63508
G1 X136.918 Y130.071 E17.67434
G1 X136.693 Y130.366 E17.68668
G1 X135.15 Y132.257 E17.76785
G1 X134.79 Y132.657 E17.78575
G1 X133.191 Y134.272 E17.86134
G1 X132.783 Y134.646 E17.87975
G1 X129.816 Y137.102 E18.00785
G1 X129.278 Y137.495 E18.03001
G1 X127.014 Y138.954 E18.1196
G1 X126.468 Y139.264 E18.14048
G1 X123.448 Y140.761 E18.25259
G1 X122.919 Y140.991 E18.27177
G1 X120.411 Y141.927 E18.36081
G1 X119.86 Y142.1 E18.38002
G1 X117.021 Y142.837 E18.47757
G1 X116.467 Y142.952 E18.49639
G1 X113.717 Y143.376 E18.58894
G1 X113.154 Y143.433 E18.60776
G1 X110.284 Y143.582 E18.70335
G1 X109.702 Y143.582 E18.7227
G1 X106.79 Y143.43 E18.81969
G1 X106.137 Y143.358 E18.84154
G1 X102.738 Y142.776 E18.95624
G1 X102.207 Y142.658 E18.97433
G1 X99.854 Y142.015 E19.05546
G1 X99.321 Y141.84 E19.07412
G1 X96.602 Y140.795 E19.171
G1 X96.004 Y140.524 E19.19284
G1 X92.949 Y138.917 E19.30765
G1 X92.429 Y138.606 E19.3278
G1 X90.07 Y137.018 E19.42238
G1 X89.638 Y136.697 E19.44028
G1 X87.58 Y135.003 E19.52894
G1 X87.165 Y134.625 E19.54761
G1 X85.205 Y132.651 E19.64013
G1 X84.823 Y132.224 E19.65919
G1 X82.989 Y129.954 E19.75625
G1 X82.603 Y129.413 E19.77835
G1 X80.731 Y126.432 E19.89543
G1 X80.453 Y125.937 E19.91431
G1 X79.309 Y123.624 E20.00014
G1 X79.085 Y123.105 E20.01894
G1 X78.068 Y120.389 E20.1154
G1 X77.897 Y119.853 E20.13411
G1 X77.198 Y117.202 E20.2253
G1 X77.07 Y116.573 E20.24665
G1 X76.582 Y113.187 E20.36043
G1 X76.53 Y112.626 E20.37917
G1 X76.419 Y110.013 E20.46616
G1 X76.424 Y109.438 E20.48528
G1 X76.6 Y106.517 E20.58261
G1 X76.666 Y105.936 E20.60206
G1 X77.143 Y103.066 E20.69883
G1 X77.262 Y102.521 E20.71738
G1 X77.974 Y99.891 E20.808
G1 X78.175 Y99.284 E20.82927
G1 X79.441 Y96.101 E20.9432
G1 X79.678 Y95.585 E20.96209
G1 X80.892 Y93.253 E21.04953
G1 X81.189 Y92.748 E21.06902
G1 X82.843 Y90.249 E21.16869
G1 X83.173 Y89.801 E21.1872
G1 X84.879 Y87.709 E21.27698
G1 X85.265 Y87.282 E21.29613
M204 S5000
M205 X30 Y30
G0 F3600 X85.547 Y87.566
M204 S500
M205 X20 Y20
G1 F1800 X87.624 Y85.495 E21.39368
G1 X88.03 Y85.131 E21.41182
G1 X90.298 Y83.3 E21.50877
G1 X90.798 Y82.943 E21.5292
G1 X93.78 Y81.07 E21.64632
G1 X94.241 Y80.812 E21.66389
G1 X96.554 Y79.668 E21.74972
G1 X97.036 Y79.459 E21.76719
G1 X99.752 Y78.442 E21.86365
G1 X100.25 Y78.284 E21.88103
G1 X102.906 Y77.584 E21.97239
G1 X103.494 Y77.464 E21.99235
G1 X106.904 Y76.976 E22.10692
G1 X107.454 Y76.927 E22.12528
G1 X110.26 Y76.826 E22.21867
G1 X110.805 Y76.835 E22.2368
G1 X113.749 Y77.038 E22.33495
G1 X114.297 Y77.106 E22.35332
G1 X117.223 Y77.624 E22.45215
G1 X117.688 Y77.728 E22.468
G1 X120.041 Y78.371 E22.54913
G1 X120.538 Y78.534 E22.56653
G1 X123.261 Y79.582 E22.66357
G1 X123.813 Y79.833 E22.68374
G1 X126.865 Y81.438 E22.79843
G1 X127.35 Y81.727 E22.81721
G1 X129.711 Y83.317 E22.91188
G1 X130.148 Y83.646 E22.93007
G1 X132.432 Y85.562 E23.02923
G1 X132.77 Y85.872 E23.04448
G1 X134.04 Y87.144 E23.10427
G1 X134.135 Y87.242 E23.10881
G1 X134.709 Y87.848 E23.13657
G1 X134.99 Y88.17 E23.15078
G1 X136.723 Y90.33 E23.24289
G1 X137.027 Y90.75 E23.26014
G1 X138.589 Y93.153 E23.35546
G1 X138.851 Y93.604 E23.37281
G1 X139.878 Y95.596 E23.44735
G1 X140.061 Y95.991 E23.46183
G1 X141.186 Y98.71 E23.5597
G1 X141.387 Y99.292 E23.58018
G1 X142.428 Y102.998 E23.70821
G1 X142.561 Y103.609 E23.72901
G1 X142.979 Y106.311 E23.81995
G1 X143.033 Y106.838 E23.83757
G1 X143.183 Y109.744 E23.93435
G1 X143.183 Y110.288 E23.95244
G1 X143.028 Y113.206 E24.04963
G1 X142.96 Y113.807 E24.06975
G1 X142.381 Y117.189 E24.18387
G1 X142.272 Y117.683 E24.2007
G1 X141.627 Y120.043 E24.28207
G1 X141.464 Y120.539 E24.29943
G1 X140.413 Y123.271 E24.39679
G1 X140.204 Y123.743 E24.41396
G1 X139.229 Y125.679 E24.48606
G1 X139.019 Y126.057 E24.50044
G1 X137.472 Y128.581 E24.5989
G1 X137.276 Y128.877 E24.61071
G1 X136.592 Y129.839 E24.64997
G1 X136.383 Y130.113 E24.66143
G1 X134.84 Y132.004 E24.74261
G1 X134.506 Y132.376 E24.75924
G1 X132.907 Y133.991 E24.83483
G1 X132.528 Y134.338 E24.85192
G1 X129.561 Y136.794 E24.98002
G1 X129.062 Y137.159 E25.00059
G1 X126.798 Y138.618 E25.09017
G1 X126.29 Y138.906 E25.10959
G1 X123.27 Y140.403 E25.2217
G1 X122.779 Y140.616 E25.2395
G1 X120.271 Y141.552 E25.32854
G1 X119.76 Y141.713 E25.34636
G1 X116.921 Y142.45 E25.44391
G1 X116.406 Y142.556 E25.4614
G1 X113.656 Y142.98 E25.55395
G1 X113.134 Y143.034 E25.5714
G1 X110.264 Y143.183 E25.66699
G1 X109.723 Y143.183 E25.68498
G1 X106.811 Y143.031 E25.78196
G1 X106.204 Y142.963 E25.80228
G1 X102.805 Y142.381 E25.91698
G1 X102.312 Y142.272 E25.93377
G1 X99.959 Y141.629 E26.0149
G1 X99.465 Y141.467 E26.03219
G1 X96.746 Y140.422 E26.12907
G1 X96.19 Y140.17 E26.14938
G1 X93.135 Y138.563 E26.26419
G1 X92.652 Y138.275 E26.28289
G1 X90.293 Y136.687 E26.37747
G1 X89.892 Y136.388 E26.39411
G1 X87.834 Y134.694 E26.48277
G1 X87.449 Y134.343 E26.50009
G1 X85.489 Y132.369 E26.59262
G1 X85.134 Y131.973 E26.61031
G1 X83.3 Y129.703 E26.70737
G1 X82.941 Y129.2 E26.72792
G1 X81.069 Y126.219 E26.845
G1 X80.812 Y125.759 E26.86252
G1 X79.668 Y123.446 E26.94835
G1 X79.459 Y122.964 E26.96582
G1 X78.442 Y120.248 E27.06228
G1 X78.284 Y119.751 E27.07963
G1 X77.585 Y117.1 E27.17082
G1 X77.466 Y116.516 E27.19064
G1 X76.978 Y113.13 E27.30442
G1 X76.93 Y112.609 E27.32182
G1 X76.819 Y109.996 E27.40881
G1 X76.823 Y109.462 E27.42657
G1 X76.999 Y106.541 E27.5239
G1 X77.06 Y106.001 E27.54198
G1 X77.537 Y103.131 E27.63874
G1 X77.648 Y102.625 E27.65597
G1 X78.36 Y99.995 E27.74659
G1 X78.547 Y99.432 E27.76633
G1 X79.813 Y96.249 E27.88026
G1 X80.033 Y95.77 E27.89779
G1 X81.247 Y93.438 E27.98523
G1 X81.523 Y92.969 E28.00333
G1 X83.177 Y90.47 E28.10301
G1 X83.483 Y90.054 E28.12018
G1 X85.189 Y87.962 E28.20997
G1 X85.547 Y87.566 E28.22772
M204 S5000
M205 X30 Y30
G1 F2400 E23.22772
G0 F3600 X93.115 Y86.841
G0 X93.923 Y87.839
G0 X112.851 Y82.849
G0 X112.861 Y82.75
M204 S500
M205 X20 Y20
;TYPE:WALL-INNER
G1 F2400 E28.22772
G1 F1800 X115.71 Y83.202 E28.32367
G1 X118.469 Y83.942 E28.41867
G1 X121.16 Y84.978 E28.51458
G1 X123.712 Y86.279 E28.60985
G1 X126.119 Y87.846 E28.70538
G1 X128.347 Y89.652 E28.80077
G1 X130.379 Y91.687 E28.89642
